X: 100351
T: DASHING WHITE SERGEANT -- Contre Dance
R: reel
B: K\"ohler's Violin Repository, v.3, 1885 p.240 #3
F: http://www.archive.org/details/klersviolinrepos03rugg
Z: 2012 John Chambers <jc:trillian.mit.edu>
M: C|
L: 1/8
K: F
(ucA) !segno! |\
F2FG (FG)AB | (c=B)cd c2ag | f2d2 (dc)BA | d2G2 (GB)AG |\
F2(FG) (FG)AB | (c=B)cd (.c2.a2) | g2f2 e2d2 | c6 :|
uG2 |\
c2cd e2ef | g2ge (.uc2.c2) | d2de f2fg | a2.af (.ud2.d2) |\
e2ee f2ff | g2gg a2aa | b2a2g2f2 | e2d2c2B2 |
A2f2 {g}(fe)fg | f2c2 c2f2 | d2g2 {a}(g^f)ga | g2d2 d2f2 |\
c2f2 {g}(fe)fg | a2f2 {g}(fe)fg | a4 c'4 | c=Bcd c_BAG "^D.C."|]

%%sep 2 1 500

